X:1
T:Title
%%score { ( 1 3 ) | ( 2 4 ) }
L:1/8
Q:1/4=90
M:6/8
K:G
V:1 treble nm="Grand Piano"
V:3 treble 
V:2 bass 
V:4 bass 
V:1
 [DB][Ec][DB] D2 [DB] | [DB]3 [DA]3 | [Fc][Fd][Fc] D2 c | B6 | BcB A2 G | F3 A3 | %6
w: Thoro~Harris * * * *||||||
 [^CB][CA][CG] [CF]2 [CE] | z fe d^cd | [Fc]3 [DA]3[K:bass] | [Dd]3 [DB]3 | e>dB B_B=B | %11
w: |||||
 [Ed]3 [Ec]3 | [DA][DB][DA] [=Fd]2 B | c2 B [CE]3 | [EA][EG]E D^CD | B2 A [G,B,G]3 |] %16
w: |||||
V:2
 [G,,G,][G,,G,][G,,G,] [B,,G,]2 [G,,G,] | [D,G,]3 [D,F,]3 | [D,A,][D,B,][D,A,] [F,A,]2 [D,F,D] | %3
 [G,D]6 | [G,D][G,E][G,D] [F,A,D]2 [E,A,^C] | [D,A,D]3 [D,F,D]3 | %6
 [A,,G,][A,,G,][A,,E,] [A,,A,]2 [A,,G,] | [D,F,C]6 | [D,A,]D,D, [C,F,]C,C, | %9
 [B,,G,]B,,B,, [G,,G,]2 G,, | [E,^G,E]>[E,G,E][E,G,D] D^C[E,G,D] | [A,,A,]3 [A,,A,]3 | %12
 [C,F,][C,F,][C,F,] [B,,G,]2 [=F,G,D] | [E,^G,E]2 [E,G,D] [A,,A,]3 | z3 .[D,=B,]3 | D2 C G,,3 |] %16
V:3
 x6 | x6 | x6 | x6 | x6 | x6 | x6 | A6 | z A,A, z[K:bass] F,F, | z G,G, z2 G, | x6 | x6 | x6 | x6 | %14
 x6 | x6 |] %16
V:4
 x6 | x6 | x6 | x6 | x6 | x6 | x6 | x6 | x6 | x6 | z3 .[E,^G,]3 | x6 | x6 | x6 | %14
 [C,G,][C,G,][^C,G,_B,] G,-[E,G,_B,][D,G,=B,] | [D,F,]3 z3 |] %16

